!!!!SEGMENT: pl-sa--400-a-viii-40--003-001_pugnani-gaetano--trio-in-g-allegro.krn
!!!cenid: 17xx:2026
!!!COM: Pugnani, Gaetano
!!!COM-rismID: pe30002608
!!!CDT: 1731/11/27-1798/07/15
!!!CNT: Italian
!!!OPR: Trio in G
!!!OTL: Allegro
!!!OMV: 001
!!!PDT:
!!!AGN: Secular
!!!SMS-siglum: PL-SA
!!!SMS-shelfmark: 400/A VIII 40
!!!SMS-shelfwork: 003-001 M
!!!SMS-variant:
!!!SMS-altvar:
!!!NIFC-rismSourceID: 1001104661
!!!NIFC-islandoraID:
!!!URL-pdf-islandora:
!!!URL-scan: https://bc.bdsandomierz.pl/dlibra/publication/1703/edition/1671/content @EN{Scan on Cyfrowa Biblioteka Diecezjalna w Sandomierzu} @PL{Skany w portalu Cyfrowa Biblioteka Diecezjalna w Sandomierzu}
!!!ONB-nifc: UWAGA: No 3tio. Części: 1. Allegro, 2. Adagio, 3. Allegro
!!!AIN: 1 empty 2 violn
!!!key:
**kern	**kern	**kern	**dynam
*part3	*part2	*part1	*part1
*staff3	*staff2	*staff1	*
*Iempty	*Ivioln	*Ivioln	*
*I"Baſso	*I"Violino 2do	*I"Violino 1mo	*
*I'cb.	*I'vn II	*I'vn I	*
*clefF4	*clefG2	*clefG2	*
*k[f#]	*k[f#]	*k[f#]	*
*G:	*G:	*G:	*
*M2/4	*M2/4	*M2/4	*
*>[A,A,B,B]	*>[A,A,B,B]	*>[A,A,B,B]	*
*>A	*>A	*>A	*
!	!	!LO:TX:a:i:t=Allo	!
8ryy	8r	8g/	.
=1	=1	=1	=1
!LO:TX:t=P:problem=zgodnie z RISM "b part missing."	!	!	!
2ryy	8r	8dd\L	.
.	8g/L	8dd\	.
.	8f#/	8dd\	.
.	8d/J	8dd\J	.
=2	=2	=2	=2
2ryy	8r	32dd\LLL	.
.	.	32cc\J	.
.	.	16b\JJ	.
.	8G/L	8r	.
.	.	8qqaa/	.
.	8B/	32gg\LLL	.
.	.	32ff#\J	.
.	.	16gg\JJ	.
.	8G/J	8r	.
=3	=3	=3	=3
2ryy	8r	32ee\LLL	.
.	.	32dd\J	.
.	.	16cc\JJ	.
.	8c/L	8r	.
.	.	8qqaa/	.
.	8e/	32gg\LLL	.
.	.	32ff#\J	.
.	.	16gg\JJ	.
.	8c/J	8r	.
=4	=4	=4	=4
2ryy	8r	32dd\LLL	.
.	.	32cc\J	.
.	.	16b\JJ	.
.	8G/L	8r	.
.	8B/	4gg\	.
.	8G/J	.	.
=5	=5	=5	=5
2ryy	4d/	(8gg\L	.
.	.	8ff#\J)	.
.	8r	4aa\	.
.	8c/	.	.
=6	=6	=6	=6
2ryy	4B/	(8aa\L	.
.	.	8gg\J)	.
.	16r	[4bb\	.
.	16G/LL	.	.
.	16A/	.	.
.	16B/JJ	.	.
=7	=7	=7	=7
2ryy	4c/	8bb\]	.
.	.	4aa\	.
.	4c#X/	.	.
.	.	8gg\	.
=8	=8	=8	=8
*	*	*Xtuplet	*
!	!	!LO:TUP:a:problem=klamra łukowa	!
2ryy	8d/L	24ff#\LL	.
.	.	24gg\	.
.	.	24aa\JJ	.
.	8G/J	8gg\	.
.	8r	4r	.
.	8g/	.	.
!	!	!LO:LB:g=original	!
=9	=9	=9	=9
!	!	!	!LO:DY:a:t=p&colon;
2ryy	8dd\L	8r	p
.	8dd\	8g/L	.
.	8dd\	8f#/	.
.	8dd\J	8d/J	.
=10	=10	=10	=10
2ryy	32dd\LLL	8r	.
.	32cc\J	.	.
.	16b\JJ	.	.
.	8r	8G/L	.
.	8qqaa/	.	.
.	16gg\LL	8B/	.
.	32ff#\L	.	.
.	32gg\JJJ	.	.
.	8r	8G/J	.
=11	=11	=11	=11
2ryy	32ee\LLL	8r	.
.	32dd\J	.	.
.	16cc\JJ	.	.
.	8r	8c/L	.
.	8qqaa/	.	.
.	16gg\LL	8e/	.
.	32ff#\L	.	.
.	32gg\JJJ	.	.
.	8r	8c/J	.
!	!LO:LB:g=original	!	!
=12	=12	=12	=12
2ryy	(16dd\LL	8r	.
.	32cc\L)	.	.
.	32b\JJJ	.	.
.	8r	8G/L	.
.	4gg\	8B/	.
.	.	8G/J	.
=13	=13	=13	=13
2ryy	(8gg\L	4d/	.
.	8ff#\J)	.	.
.	4aa\	8r	.
.	.	8c/	.
=14	=14	=14	=14
!	!	!LO:N:vis=8	!
2ryy	(8aa\L	4B/	.
.	8gg\J)	.	.
.	4bb\	16r	.
.	.	16G/LL	.
.	.	16.A/	.
.	.	32B/JJk	.
=15	=15	=15	=15
2ryy	8bb\	4c/	.
.	4aa\	.	.
.	.	4c#X/	.
.	8gg\	.	.
=16	=16	=16	=16
*	*Xtuplet	*	*
!	!	!LO:TX:a:t=P:mixedbeam:problem	!
2ryy	24ff#\LL	8d/L	.
.	24ee\	.	.
.	24dd\JJ	.	.
.	8dd\L	8dd\	.
.	8b\	8dd\	.
.	8g\J	8dd\J	.
=17	=17	=17	=17
2ryy	8c/	32ee\LLL	.
.	.	32dd\J	.
.	.	16cc\JJ	.
.	8r	16.g/LL	.
.	.	32e/JJk	.
.	16r	8c/	.
.	16cc/LL	.	.
.	16.g/	8r	.
.	32e/JJk	.	.
=18	=18	=18	=18
!	!LO:TX:a:t=P:problem=mixedbeam	!	!
.	.	8qff#/	.
2ryy	8c/L	(16ee\LL	.
.	.	16dd#X\)	.
.	8cc\	(16ee\	.
.	.	16dd#\JJ)	.
.	8cc\	16.ee\LL	.
.	.	32ee\K	.
.	8cc\J	16.gg\	.
.	.	32ee\JJk	.
!	!	!LO:LB:g=original	!
=19	=19	=19	=19
2ryy	8b\	16.ddn/LL	.
.	.	32b/K	.
.	8r	16.g/	.
.	.	32d/JJk	.
.	16r	8B/	.
.	16b/LL	.	.
.	16.g/	8r	.
.	32d/JJk	.	.
=20	=20	=20	=20
!	!LO:TX:a:t=P:problem=mixedbeam	!	!
.	.	8qee/	.
2ryy	8B/L	16dd\LL	.
.	.	16cc#X\	.
.	8b\	16dd\	.
.	.	16cc#\JJ	.
.	8b\	16.dd\LL	.
.	.	32dd\K	.
.	8b\J	16.gg\	.
.	.	32dd\JJk	.
=21	=21	=21	=21
2ryy	8a\	8cc\L	.
.	8r	16.ff#\L	.
.	.	32gg\JJk	.
*	*	*tuplet	*
!	!	!LO:TUP:a:problem=klamra łukowa	!
.	8f#/	24aa\LL	.
.	.	24gg\	.
.	.	24ff#\	.
.	8r	24ee\	.
.	.	24dd\	.
.	.	24cc\JJ	.
=22	=22	=22	=22
2ryy	8g/L	8b\	.
.	8G/J	4gg\	.
!	!LO:TX:a:t=P:problem=mixedbeam	!	!
.	8B/L	.	.
.	8b\J	8g/	.
=23	=23	=23	=23
2ryy	8cc\L	8a/L	.
.	16.ff#\L	8a/	.
.	32gg\JJk	.	.
!	!LO:TUP:a:problem=klamra łukowa	!	!
.	24aa\LL	8f#/	.
.	24gg\	.	.
.	24ff#\	.	.
.	24ee\	8f#/J	.
.	24dd\	.	.
.	24cc\JJ	.	.
!	!LO:PB:g=original	!	!
=24	=24	=24	=24
2ryy	8b\	8g/	.
.	4gg\	4bb\	.
.	8gg\	8bb\	.
=25	=25	=25	=25
*	*	*^	*
*	*	*	*2\right	*
2ryy	(16ff#\LL	16aa/LL	2dd\	.
.	16gg\	16bb/	.	.
.	16gg\	16bb/	.	.
.	16aa\JJ)	16ccc/JJ	.	.
.	(16aa\LL	16ccc/LL	.	.
.	16gg\	16bb/	.	.
.	16gg\	16bb/	.	.
.	16ff#\JJ)	16aa/JJ	.	.
=26	=26	=26	=26	=26
2ryy	(16gg\LL	16bb\LL	2dd\	.
.	16aa\)	16ccc\	.	.
.	(16aa\	16ccc\	.	.
.	16bb\JJ)	16ddd\JJ	.	.
.	16bb\LL	16ddd\LL	.	.
.	(16aa\	16ccc\	.	.
.	16aa\	16ccc\	.	.
.	16gg\JJ)	16bb\JJ	.	.
!	!	!LO:PB:g=original	!	!
=27	=27	=27	=27	=27
2ryy	16ff#\LL	16aa\LL	2dd\	.
.	(16gg\	16bb\	.	.
.	16gg\	16bb\	.	.
.	16aa\JJ)	16ccc\JJ	.	.
.	(16aa\LL	16ccc\LL	.	.
.	16gg\	16bb\	.	.
.	16gg\	16bb\	.	.
.	16ff#\JJ)	16aa\JJ	.	.
=28	=28	=28	=28	=28
*	*2\right	*	*	*
2ryy	2ggT\	2bb/	2dd\	.
=29	=29	=29	=29	=29
2ryy	2ff#\	2aa/	2dd\	.
*	*	*v	*v	*
=30	=30	=30	=30
!	!LO:N:vis=0r	!	!
2ryy	1r	4dd\	.
.	.	4dd\	.
=31	=31	=31	=31
*	*	*Xtuplet	*
!	!	!LO:TUP:a:problem=klamra łukowa	!
2ryy	.	24cc#X\LL	.
.	.	24dd\	.
.	.	24ee\JJ	.
.	.	8dd|>\	.
!	!	!LO:TUP:a:problem=klamra łukowa	!
.	.	24ee\LL	.
.	.	24ff#\	.
.	.	24gg\JJ	.
.	.	8ff#\	.
=32	=32	=32	=32
2ryy	4dd\	4ff#\	.
.	4dd\	4ff#\	.
=33	=33	=33	=33
!	!LO:TUP:a:problem=klamra łukowa	!LO:TUP:a:problem=klamra łukowa	!
2ryy	24cc#X\LL	24ee\LL	.
.	24dd\	24ff#\	.
.	24ee\JJ	24gg\JJ	.
.	8dd\	8ff#|>\	.
!	!LO:TUP:a:problem=klamra łukowa	!LO:TUP:a:problem=klamra łukowa	!
.	24ee\LL	24gg\LL	.
.	24ff#\	24aa\	.
.	24gg\JJ	24bb\JJ	.
.	8ff#\	8aa\	.
=34	=34	=34	=34
!	!LO:TX:a:t=P:problem=mixedbeam	!	!
2ryy	16.d/LL	8aa\L	.
.	32aa\K	.	.
.	16.gg\	8ddd\J	.
.	32ff#\JJk	.	.
!	!LO:TX:a:t=P:problem=mixedbeam	!	!
.	16.d/LL	16r	.
.	.	(16cccn\LL	.
.	32aa\K	.	.
.	16.gg\	16.bb\	.
.	32ff#\JJk	32aa\JJk)	.
=35	=35	=35	=35
!	!LO:TX:a:t=P:problem=mixedbeam	!	!
2ryy	16.d/LL	8bb\L	.
.	32bb\K	.	.
.	16.aa\	8ddd\J	.
.	32gg\JJk	.	.
!	!LO:TX:a:t=P:problem=mixedbeam	!	!
.	16.d/LL	16r	.
.	.	16ddd\LL	.
.	32bb\K	.	.
.	16.aa\	16.ccc\	.
.	32gg\JJk	32bb\JJk	.
!	!LO:LB:g=original	!	!
=36	=36	=36	=36
2ryy	8ff#\L	8aa\L	.
.	16gg\L	16.bb\L	.
.	16ee\JJ	.	.
.	.	32gg\JJk	.
.	8dd\L	8ff#\L	.
.	16ee\L	16gg\L	.
.	16cc#X\JJ	16ee\JJ	.
!	!	!LO:LB:g=original	!
=37	=37	=37	=37
!	!LO:TX:a:t=P:problem=mixedbeam	!	!
2ryy	16.d/LL	8aa\L	.
.	32aa\K	.	.
.	16.gg\	8ddd\J	.
.	32ff#\JJk	.	.
!	!LO:TX:a:t=P:problem=mixedbeam	!	!
.	16.d/LL	16r	.
.	.	16cccn\LL	.
.	32aa\K	.	.
.	16.gg\	16.bb\	.
.	32ff#\JJk	32aa\JJk	.
=38	=38	=38	=38
!	!LO:TX:a:t=P:problem=mixedbeam	!	!
2ryy	16.d/LL	8bb\L	.
.	32bb\K	.	.
.	16.aa\	8ddd\J	.
.	32gg\JJk	.	.
!	!LO:TX:a:t=P:problem=mixedbeam	!	!
.	16.d/LL	16r	.
.	.	16ddd\LL	.
.	32bb\K	.	.
.	16.aa\	16.ccc\	.
.	32gg\JJk	32bb\JJk	.
=39	=39	=39	=39
2ryy	8ff#\L	8aa\L	.
.	16.gg\L	16.bb\L	.
.	32ee\JJk	32gg\JJk	.
.	8dd\L	8ff#\L	.
.	16ee\L	16.gg\L	.
.	16cc#X\JJ	.	.
.	.	32ee\JJk	.
=40	=40	=40	=40
!	!LO:TX:a:t=P:problem=mixedbeam	!	!
2ryy	16.dd\LL	8dd\	.
.	32d/K	.	.
.	16.f#/	4ddd\	.
.	32d/JJk	.	.
.	16.g/LL	.	.
.	32d/K	.	.
.	16.a/	8ddd\	.
.	32d/JJk	.	.
=41	=41	=41	=41
2ryy	16.b/LL	(8ddd\L	.
.	32d/K	.	.
.	16.f#/	8aa\	.
.	32d/JJk	.	.
.	16.g/LL	(8bb\)	.
.	32b/K	.	.
.	16.a/	8cc#X\J)	.
.	32g/JJk	.	.
=42	=42	=42	=42
2ryy	16.f#/LL	8dd\	.
.	32d/K	.	.
.	16.g/	4dd\	.
.	32d/JJk	.	.
.	16.g/LL	.	.
.	32d/K	.	.
.	16.a/	8dd\	.
.	32d/JJk	.	.
=43	=43	=43	=43
!	!	!LO:TX:a:t=P:problem=mixedbeam	!
2ryy	16.b/LL	8dd\L	.
.	32d/K	.	.
.	16.f#/	8a\	.
.	32d/JJk	.	.
.	8G/L	8b\	.
.	8A/J	8c#X/J	.
!	!LO:LB:g=original	!	!
=44	=44	=44	=44
2ryy	4d/ 4a 4ff#	4d/ 4a 4ff#	.
.	8r	8r	.
=:|!|:	=:|!|:;	=:|!|:;	==
*>B	*>B	*>B	*
.	8r	8dd\	.
=45	=45	=45	=45
2ryy	8r	8aa\L	.
.	8a/L	8aa\	.
.	8d/	8aa\	.
.	8A/J	8aa\J	.
=46	=46	=46	=46
2ryy	4d/	32aa\LLL	.
.	.	32gg\J	.
.	.	16ff#\JJ	.
.	.	8r	.
.	16r	4ccc\	.
.	16a/LL	.	.
.	16.f#/	.	.
.	32d/JJk	.	.
!	!	!LO:LB:g=original	!
=47	=47	=47	=47
2ryy	8d#X/L	8ccc\	.
.	8d#/	4bb\	.
.	8d#/	.	.
.	8d#/J	8aa\	.
=48	=48	=48	=48
2ryy	4e/	(32gg\LLL	.
.	.	32ff#\J)	.
.	.	16ee\JJ	.
.	.	8r	.
.	16r	4bb\	.
.	16g/LL	.	.
.	16.e/	.	.
.	32d/JJk	.	.
=49	=49	=49	=49
2ryy	8c#X/L	(8bb\	.
.	8c#/	4aa\	.
.	8c#/	.	.
.	8c#/J	8gg\)	.
=50	=50	=50	=50
2ryy	4d/ 4a 4ff#	32ff#\LLL	.
.	.	32gg\J	.
.	.	16aa\JJ	.
.	.	16.d/LL	.
.	.	32d/JJk	.
!	!	!LO:TX:a:t=P:problem=mixedbeam	!
.	4r	16.d/LL	.
.	.	32aa\K	.
.	.	16.gg\	.
.	.	32ff#\JJk	.
=51	=51	=51	=51
2ryy	4d/ 4a 4ff#	32gg\LLL	.
.	.	32aa\J	.
.	.	16bb\JJ	.
.	.	16.d/LL	.
.	.	32d/JJk	.
!	!	!LO:TX:a:t=P:problem=mixedbeam	!
.	4r	16.d/LL	.
.	.	32bb\K	.
.	.	16.aa\	.
.	.	32gg\JJk	.
=52	=52	=52	=52
*	*	*^	*
2ryy	32ff#\LLL	24aa/LL	8dd\	.
.	32gg\J	.	.	.
.	.	24bb/	.	.
.	16aa\JJ	.	.	.
.	.	24ccc/JJ	.	.
.	8r	8r	8ryy	.
.	4gg\	4bb/	4dd\	.
=53	=53	=53	=53	=53
!	!LO:TX:a:t=P:problem=mixedbeam	!	!	!
2ryy	8gg\L	8bb/L	4dd\	.
.	8ff#\	8aa/J	.	.
.	8f#/	4r	4ryy	.
.	8e/J	.	.	.
*	*	*v	*v	*
=54	=54	=54	=54
2ryy	8d#X/L	4b\	.
.	8d#/	.	.
!	!	!LO:TUP:a:problem=klamra łukowa	!
.	8d#/	24b\LL	.
.	.	24dd#X\	.
.	.	24ee\	.
.	8d#/J	24ff#\	.
.	.	24gg\	.
.	.	24aa\JJ	.
=55	=55	=55	=55
2ryy	4e/	(16.gg\LL	.
.	.	32bb\K)	.
.	.	(16.dd#X\	.
.	.	32ff#\JJk	.
.	4r	16.ee/LL)	.
.	.	(32b/K	.
.	.	16.g/)	.
.	.	32e/JJk	.
!	!LO:LB:g=original	!LO:LB:g=original	!
=56	=56	=56	=56
2ryy	8r	4b\	.
.	8d#X/L	.	.
!	!	!LO:TUP:a:problem=klamra łukowa	!
.	8d#/	24b\LL	.
.	.	24dd#X\	.
.	.	24ee\	.
.	8d#/J	24ff#\	.
.	.	24gg\	.
.	.	24aa\JJ	.
=57	=57	=57	=57
2ryy	4e/	(16.gg\LL	.
.	.	32bb\K)	.
.	.	(16.dd#X\	.
.	.	32ff#\JJk)	.
.	4r	(16.ee/LL	.
.	.	32b/K)	.
.	.	(16.g/	.
.	.	32e/JJk)	.
=58	=58	=58	=58
2ryy	8r	4a\	.
.	8c#X/L	.	.
!	!	!LO:TUP:a:problem=klamra łukowa	!
.	8c#/	24a\LL	.
.	.	24cc#X\	.
.	.	24dd\	.
.	8c#/J	24ee\	.
.	.	24ff#\	.
.	.	24gg\JJ	.
=59	=59	=59	=59
2ryy	4d/	(16.ff#\LL	.
.	.	32aa\K)	.
.	.	(16.cc#X\	.
.	.	32ee\JJk)	.
.	4r	(16.dd/LL	.
.	.	32a/K)	.
.	.	(16.f#/	.
.	.	32d/JJk)	.
=60	=60	=60	=60
2ryy	8r	4a\	.
.	8c#X/L	.	.
!	!	!LO:TUP:a:problem=klamra łukowa	!
.	8c#/	24a\LL	.
.	.	24cc#X\	.
.	.	24dd\	.
.	8c#/J	24ee\	.
.	.	24ff#\	.
.	.	24gg\JJ	.
=61	=61	=61	=61
2ryy	4d/	(16.ff#\LL	.
.	.	32aa\K)	.
.	.	(16.cc#X\	.
.	.	32ee\JJk)	.
.	4r	(16.dd/LL	.
.	.	32a/K)	.
.	.	(16.f#/	.
.	.	32d/JJk)	.
=62	=62	=62	=62
2ryy	8r	4dd\	.
.	8f#/	.	.
!	!LO:TUP:a:problem=klamra łukowa	!	!
!	!LO:TX:a:t=P:problem=mixedbeam	!LO:TUP:a:problem=klamra łukowa	!
.	24f#/LL	24dd\LL	.
.	24dd\	24ff#\	.
.	24ee\	24gg\	.
.	24ff#\	24aa\	.
.	24gg\	24bb\	.
.	24aa\JJ	24ccc#X\JJ	.
=63	=63	=63	=63
*	*	*^	*
2ryy	16gg\LL	16bb\LL	2dd\	.
.	(16aa\	16ccc\	.	.
.	16aa\	16ccc\	.	.
.	16bb\JJ)	16ddd\JJ	.	.
.	(16bb\LL	16ddd\LL	.	.
.	16aa\	16ccc\	.	.
.	16aa\	16ccc\	.	.
.	16gg\JJ)	16bb\JJ	.	.
!	!	!LO:LB:g=original	!	!
=64	=64	=64	=64	=64
2ryy	16ff#\LL	16aa\LL	2dd\	.
.	(16gg\	16bb\	.	.
.	16gg\	16bb\	.	.
.	16aa\JJ)	16ccc\JJ	.	.
.	(16aa\LL	16ccc\LL	.	.
.	16gg\	16bb\	.	.
.	16gg\	16bb\	.	.
.	16ff#\JJ)	16aa\JJ	.	.
=65	=65	=65	=65	=65
.	8qqff#/	8qqccc/	.	.
2ryy	2gg\	2bb/	2dd\	.
=66	=66	=66	=66	=66
2ryy	4ff#\	4aa/	2dd\	.
.	4r	8rdd	.	.
.	.	8g/	.	.
*	*	*v	*v	*
=67	=67	=67	=67
2ryy	8r	8dd\L	.
.	8g/L	8dd\	.
.	8f#/	8dd\	.
.	8d/J	8dd\J	.
!	!LO:LB:g=original	!	!
=68	=68	=68	=68
2ryy	8r	(32dd\LLL	.
.	.	32cc\J	.
.	.	16b\JJ)	.
.	8G/L	8r	.
.	.	8qqaa/	.
.	8B/	32gg\LLL	.
.	.	32ff#\J	.
.	.	16gg\JJ	.
.	8G/J	8r	.
=69	=69	=69	=69
2ryy	8r	(32ee\LLL	.
.	.	32dd\J	.
.	.	16cc\JJ)	.
.	8c/L	8r	.
.	.	8qqaa/	.
.	8e/	(32gg\LLL	.
.	.	32ff#\J	.
.	.	16gg\JJ)	.
.	8c/J	8r	.
=70	=70	=70	=70
2ryy	8r	(32dd\LLL	.
.	.	32cc\J	.
.	.	16b\JJ)	.
.	8G/L	8r	.
.	8B/	4g/	.
.	8G/J	.	.
=71	=71	=71	=71
2ryy	4d/	(8g/L	.
.	.	8f#/J)	.
.	8r	4a/	.
.	8c/	.	.
=72	=72	=72	=72
2ryy	4B/	8a\L	.
.	.	8g\J	.
.	4g/	4b\	.
=73	=73	=73	=73
2ryy	8g/L	8b\L	.
.	8f#/J	8a\J	.
.	4a/	[4cc\	.
=74	=74	=74	=74
*	*	*^	*
2ryy	8a/L	8cc\L]	4ryy	.
.	8g/J	8b\J	.	.
.	4b\	4dd/	4g\	.
!	!	!LO:LB:g=original	!LO:LB:g=original	!
=75	=75	=75	=75	=75
2ryy	16b\LL	16dd/LL	2g/	.
.	(16cc\	16ee/	.	.
.	16cc\	16ee/	.	.
.	16dd\JJ)	16ffn/JJ	.	.
.	(16dd\LL	16ff/LL	.	.
.	16cc\	16ee/	.	.
.	16cc\	16ee/	.	.
.	16b\JJ)	16dd/JJ	.	.
=76	=76	=76	=76	=76
2ryy	(16cc\LL	16ee/LL	2g/	.
.	16dd\	16ffn/	.	.
.	16dd\	16ff/	.	.
.	16ee\JJ)	16gg/JJ	.	.
.	(16ee\LL	16gg/LL	.	.
.	16dd\	16ff/	.	.
.	16dd\	16ff/	.	.
.	16cc\JJ)	16ee/JJ	.	.
=77	=77	=77	=77	=77
2ryy	(16b\LL	16dd/LL	2g/	.
.	16cc\	16ee/	.	.
.	16cc\	16ee/	.	.
.	16dd\JJ)	16ffn/JJ	.	.
.	(16dd\LL	16ff/LL	.	.
.	16cc\	16ee/	.	.
.	16cc\	16ee/	.	.
.	16b\JJ)	16dd/JJ	.	.
*	*	*v	*v	*
=78	=78	=78	=78
!	!LO:TX:a:t=P:problem=mixedbeam	!	!
2ryy	8cc\L	8ee\	.
.	8cc\	(32ee\LLL	.
.	.	32dd\	.
.	.	32cc\	.
.	.	32b\JJJ)	.
.	8f#/	8a\L	.
.	8f#/J	8ee\J	.
=79	=79	=79	=79
!	!LO:TX:a:t=P:problem=mixedbeam	!	!
2ryy	8b\L	8dd\	.
.	8b\	(32dd\LLL	.
.	.	32cc\	.
.	.	32b\	.
.	.	32a\JJJ)	.
.	8e/	(16.g\LL	.
.	.	32b\K)	.
.	8e/J	(16.cc\	.
.	.	32dd\JJk)	.
!	!LO:LB:g=original	!	!
=80	=80	=80	=80
2ryy	8a/L	8cc\	.
.	8a/	32cc\LLL	.
.	.	32b\	.
.	.	32a\	.
.	.	32g\JJJ	.
.	8d/	8f#/L	.
.	8d/J	8cc/J	.
=81	=81	=81	=81
2ryy	8G/L	16.b\LL	.
.	.	32g\K	.
.	8A/	16.cc\	.
.	.	32a\JJk	.
.	8B/	16.dd\LL	.
.	.	32b\K	.
.	8c/J	16.ee\	.
.	.	32cc\JJk	.
!	!	!LO:LB:g=original	!
=82	=82	=82	=82
2ryy	8d/L	8b/L	.
.	8d/	16g/L	.
.	.	16a/JJ	.
.	8d/	4aT/	.
.	8d/J	.	.
=83	=83	=83	=83
!	!LO:TX:a:t=P:problem=mixedbeam	!LO:TX:a:t=P:problem=mixedbeam	!
2ryy	16.G/LL	8g/L	.
.	32dd\K	.	.
.	16.cc\	8gg\J	.
.	32b\JJk	.	.
!	!LO:TX:a:t=P:problem=mixedbeam	!	!
.	16.G/LL	16r	.
.	.	16ffn\LL	.
.	32dd\K	.	.
.	16.cc\	16.ee\	.
.	32b\JJk	32dd\JJk	.
=84	=84	=84	=84
!	!LO:TX:a:t=P:problem=mixedbeam	!	!
2ryy	16.G/LL	8ee\L	.
.	32ee\K	.	.
.	16.dd\	8gg\J	.
.	32cc\JJk	.	.
!	!LO:TX:a:t=P:problem=mixedbeam	!	!
.	16.G/LL	16r	.
.	.	16gg\LL	.
.	32ee\K	.	.
.	16.dd\	16.ffn\	.
.	32cc\JJk	32ee\JJk	.
=85	=85	=85	=85
2ryy	8b\L	8dd\L	.
.	16.cc\L	16.ee\L	.
.	32a\JJk	32cc\JJk	.
!	!	!LO:TX:a:t=bis	!
.	8g/L	8b\L	.
.	16.a/L	16.cc\L	.
.	32f#/JJk	32a\JJk	.
=86	=86	=86	=86
!	!	!LO:TX:a:t=P:problem=repetycja 3 taktów	!
!	!LO:TX:a:t=P:problem=mixedbeam	!LO:TX:a:t=P:problem=mixedbeam	!
2ryy	16.G/LL	8g\L	.
.	32dd\K	.	.
.	16.cc\	8gg\J	.
.	32b\JJk	.	.
!	!LO:TX:a:t=P:problem=mixedbeam	!	!
.	16.G/LL	16r	.
.	.	16ffn\LL	.
.	32dd\K	.	.
.	16.cc\	16.ee\	.
.	32b\JJk	32dd\JJk	.
=87	=87	=87	=87
!	!LO:TX:a:t=P:problem=mixedbeam	!	!
2ryy	16.G/LL	8ee\L	.
.	32ee\K	.	.
.	16.dd\	8gg\J	.
.	32cc\JJk	.	.
!	!LO:TX:a:t=P:problem=mixedbeam	!	!
.	16.G/LL	16r	.
.	.	16gg\LL	.
.	32ee\K	.	.
.	16.dd\	16.ffn\	.
.	32cc\JJk	32ee\JJk	.
=88	=88	=88	=88
2ryy	8b\L	8dd\L	.
.	16.cc\L	16.ee\L	.
.	32a\JJk	32cc\JJk	.
.	8g/L	8b\L	.
.	16.a/L	16.cc\L	.
.	32f#/JJk	32a\JJk	.
!	!LO:LB:g=original	!	!
=89	=89	=89	=89
2ryy	16.g/LL	8g/	.
.	32G/K	.	.
.	16.B/	4gg\	.
.	32G/JJk	.	.
.	16.c/LL	.	.
.	32G/K	.	.
.	16.d/	8gg\	.
.	32G/JJk	.	.
=90	=90	=90	=90
!	!	!LO:TX:a:t=P:problem=mixedbeam	!
2ryy	16.e/LL	8gg\L	.
.	32G/K	.	.
.	16.B/	8dd\	.
.	32G/JJk	.	.
.	16.c/LL	8ee\	.
.	32e/K	.	.
.	16.d/	8f#/J	.
.	32c/JJk	.	.
=91	=91	=91	=91
2ryy	16.B/LL	8g/	.
.	32G/K	.	.
.	16.B/	4gg\	.
.	32G/JJk	.	.
.	16.c/LL	.	.
.	32G/K	.	.
.	16.d/	8gg\	.
.	32G/JJk	.	.
=92	=92	=92	=92
!	!	!LO:TX:a:t=P:problem=mixedbeam	!
2ryy	16.e/LL	8gg\L	.
.	32G/K	.	.
.	16.B/	8dd\	.
.	32G/JJk	.	.
.	8c/L	8ee\	.
.	8d/J	8f#/J	.
=93	=93	=93	=93
4ryy	4G/ 4d 4b 4gg	4G/ 4g	.
8r	8r	8r	.
=:|!	=:|!;	=:|!;	=:|!
*-	*-	*-	*-
!!!system-decoration: [(s1,s2,s3)]
!!!RDF**kern: < = below
!!!RDF**kern: > = above
!!!RDF**kern: | = vertical stroke
!!!ENC: Berenika Jozajtis
!!!END: 2021-03-10
!!!ENC: Marta Chmielewska
!!!END: 2021-10-28
